front/public/static/landing/logos/gray/kaiko.svg

<svg fill="none" height="240" viewBox="0 0 600 240" width="600" xmlns="http://www.w3.org/2000/svg" xmlns:xlink="http://www.w3.org/1999/xlink"><mask id="a" height="114" maskUnits="userSpaceOnUse" width="330" x="135" y="63"><path d="m464.544 63.7507h-329.083v112.5003h329.083z" fill="#fff"/></mask><mask id="b" height="96" maskUnits="userSpaceOnUse" width="213" x="252" y="76"><path d="m464.796 76.0414h-212.241v95.2036h212.241z" fill="#fff"/></mask><g fill="#364153" mask="url(#a)"><path d="m135.574 117.835 6.949-36.6427c.414-2.1656 1.944-3.9487 4.026-4.668l36.558-12.7042c.896-.3139 1.791.459 1.615 1.3927l-3.589 18.9492c-.084.4286-.39.7882-.804.9337l-20.288 7.0868"/><path d="m156.675 93.3525c-10.906 3.8036-18.949 13.1325-21.107 24.4825-.406 2.158.359 4.362 2.02 5.801l29.349 25.431c.72.62 1.837.23 2.013-.704l3.636-19.179c.084-.428-.077-.872-.406-1.163l-16.286-14.028 4.133-21.8112"/><path d="m228.053 97.6312-6.949 36.6428c-.413 2.166-1.944 3.949-4.025 4.668l-36.552 12.697c-.895.314-1.79-.459-1.614-1.393l3.589-18.949c.084-.428.391-.788.804-.934l20.288-7.086"/><path d="m203.597 123.284 4.133-21.811-16.286-14.0283c-.337-.291-.49-.7271-.406-1.1633l3.636-19.1786c.176-.9337 1.301-1.3241 2.012-.7042l29.35 25.4313c1.661 1.4389 2.426 3.6428 2.02 5.8009-2.15 11.3492-10.201 20.6782-21.107 24.4822"/><g mask="url(#b)"><path d="m355.023 82.8521c0-3.7421 3.062-6.8111 6.72-6.8111s6.811 3.0611 6.811 6.8111-3.061 6.7197-6.811 6.7197-6.72-3.0615-6.72-6.7197z"/><path d="m252.555 82.8147h11.915v30.6353c.337-.597 3.062-4.684 5.021-7.232l17.533-23.4033h13.875l-19.232 25.1863 21.612 29.954h-13.959l-14.977-21.192-9.873 12.085v9.107h-11.915z"/><path d="m367.524 95.4116h-11.403v42.5514h11.403z"/><path d="m376.207 82.8147h11.4v30.2983l14.644-17.7013h13.875l-16.594 18.5513 19.399 24h-13.695l-12.765-16.256-4.856 5.786v10.47h-11.4v-55.1483z"/><path d="m419.27 116.678c0-12.337 10.038-22.1251 22.721-22.1251 12.679 0 22.804 9.7881 22.804 22.1251s-10.039 22.125-22.804 22.125c-12.769 0-22.721-9.788-22.721-22.125zm33.87 0c0-6.635-4.77-11.572-11.149-11.572-6.386 0-11.153 4.937-11.153 11.572s4.767 11.571 11.153 11.571c6.379 0 11.149-4.852 11.149-11.571z"/><path d="m336.295 95.4042v3.4211c-2.961-2.403-6.658-3.8801-10.454-4.2397-6.819-.6582-13.829 2.4337-18.359 7.4924-3.582 3.995-5.564 9.237-5.564 14.602s1.982 10.607 5.564 14.602c4.53 5.059 11.54 8.151 18.359 7.492 3.804-.36 7.5-1.836 10.454-4.24v3.414h11.151v-42.5438zm-11.663 32.8468c-6.382 0-11.151-4.936-11.151-11.571s4.769-11.572 11.151-11.572c6.383 0 11.151 4.937 11.151 11.572s-4.761 11.571-11.151 11.571z"/><path d="m255.654 170.64c-.926-.398-1.661-.957-2.204-1.676-.536-.712-.834-1.538-.895-2.464h2.617c.076.765.428 1.385 1.072 1.867.642.482 1.484.727 2.525.727.964 0 1.729-.214 2.288-.642.559-.429.834-.965.834-1.616 0-.65-.298-1.163-.895-1.492-.597-.321-1.515-.643-2.763-.964-1.133-.299-2.058-.597-2.77-.903s-1.332-.766-1.837-1.363c-.513-.604-.765-1.4-.765-2.38 0-.78.229-1.492.696-2.142.467-.651 1.125-1.164 1.982-1.546.858-.383 1.83-.574 2.924-.574 1.691 0 3.053.428 4.094 1.278 1.041.857 1.599 2.028 1.668 3.513h-2.533c-.053-.796-.375-1.439-.964-1.921-.582-.482-1.37-.727-2.357-.727-.911 0-1.638.199-2.174.581-.535.39-.811.903-.811 1.531 0 .505.161.918.49 1.24.321.329.735.581 1.224.78.49.199 1.179.414 2.052.658 1.094.299 1.989.59 2.678.881.689.29 1.278.719 1.768 1.293s.75 1.332.765 2.257c0 .835-.229 1.592-.696 2.258s-1.117 1.194-1.967 1.577c-.85.382-1.814.574-2.916.574-1.171 0-2.219-.199-3.153-.597h.023z"/><path d="m289.489 156.168c.926.49 1.66 1.232 2.204 2.219.535.988.811 2.182.811 3.597v9h-2.51v-8.64c0-1.523-.376-2.686-1.133-3.497-.75-.811-1.768-1.21-3.053-1.21-1.286 0-2.373.421-3.153 1.271-.781.849-1.171 2.066-1.171 3.665v8.419h-2.511v-8.64c0-1.523-.375-2.687-1.125-3.498s-1.767-1.209-3.053-1.209-2.373.421-3.153 1.27c-.781.85-1.171 2.067-1.171 3.666v8.419h-2.533v-15.276h2.533v2.204c.505-.796 1.178-1.408 2.02-1.836.842-.429 1.776-.644 2.801-.644 1.286 0 2.418.291 3.398.866.988.574 1.722 1.423 2.205 2.533.428-1.08 1.132-1.914 2.119-2.511s2.082-.895 3.291-.895 2.25.245 3.176.742v-.015z"/><path d="m296.652 159.183c.635-1.179 1.5-2.097 2.61-2.748 1.102-.65 2.334-.972 3.696-.972 1.363 0 2.503.291 3.482.865.987.574 1.722 1.301 2.204 2.174v-2.786h2.564v15.275h-2.564v-2.847c-.505.896-1.247 1.631-2.242 2.22-.995.582-2.15.88-3.467.88-1.316 0-2.586-.337-3.681-1.003-1.094-.665-1.959-1.607-2.594-2.816-.636-1.209-.949-2.579-.949-4.125s.313-2.931.949-4.109h-.008zm11.288 1.125c-.466-.857-1.094-1.508-1.882-1.967s-1.661-.681-2.61-.681-1.814.222-2.594.666c-.781.444-1.401 1.094-1.868 1.951-.467.858-.696 1.86-.696 3.008s.229 2.189.696 3.053c.467.865 1.087 1.523 1.868 1.983.78.459 1.645.681 2.594.681s1.814-.23 2.61-.681c.788-.452 1.416-1.118 1.882-1.983.467-.864.697-1.875.697-3.023s-.23-2.158-.697-3.007z"/><path d="m319.939 156.16c.826-.482 1.837-.727 3.023-.727v2.617h-.666c-2.839 0-4.263 1.546-4.263 4.63v8.304h-2.533v-15.275h2.533v2.479c.444-.873 1.079-1.554 1.906-2.036z"/><path d="m328.988 157.815v8.992c0 .743.161 1.271.474 1.577.314.306.866.459 1.646.459h1.867v2.143h-2.288c-1.416 0-2.472-.322-3.176-.972s-1.056-1.722-1.056-3.207v-8.992h-1.982v-2.097h1.982v-5.349h2.533v5.349h3.987v2.097z"/><path d="m343.48 159.184c.635-1.179 1.5-2.097 2.61-2.747 1.102-.65 2.349-.972 3.719-.972 1.186 0 2.296.275 3.314.819 1.018.551 1.798 1.27 2.342 2.158v-8.082h2.564v20.625h-2.564v-2.87c-.505.911-1.248 1.661-2.227 2.243-.987.581-2.135.88-3.459.88-1.325 0-2.587-.337-3.697-1.003-1.102-.665-1.975-1.607-2.61-2.816s-.949-2.579-.949-4.125.314-2.931.949-4.11zm11.288 1.133c-.467-.857-1.094-1.508-1.882-1.967s-1.661-.681-2.61-.681-1.814.222-2.594.666c-.781.444-1.401 1.094-1.868 1.951s-.696 1.86-.696 3.008.229 2.189.696 3.053c.467.865 1.087 1.524 1.868 1.983.78.459 1.645.681 2.594.681s1.814-.23 2.61-.681c.788-.452 1.415-1.118 1.882-1.983.467-.864.697-1.875.697-3.023 0-1.147-.23-2.157-.697-3.007z"/><path d="m362.324 159.183c.635-1.179 1.5-2.097 2.61-2.748 1.102-.65 2.334-.972 3.696-.972s2.502.291 3.482.865c.987.574 1.722 1.301 2.204 2.174v-2.786h2.563v15.275h-2.563v-2.847c-.505.896-1.247 1.631-2.242 2.22-.995.582-2.151.88-3.467.88s-2.587-.337-3.681-1.003c-1.094-.665-1.959-1.607-2.594-2.816-.636-1.209-.949-2.579-.949-4.125s.313-2.931.949-4.109zm11.288 1.125c-.467-.857-1.094-1.508-1.883-1.967-.787-.459-1.66-.681-2.609-.681s-1.814.222-2.594.666c-.781.444-1.401 1.094-1.868 1.951-.467.858-.696 1.86-.696 3.008s.229 2.189.696 3.053c.467.865 1.087 1.523 1.868 1.983.78.459 1.645.681 2.594.681s1.814-.23 2.609-.681c.789-.452 1.416-1.118 1.883-1.983.467-.864.697-1.875.697-3.023s-.23-2.158-.697-3.007z"/><path d="m384.257 157.807v9c0 .743.158 1.271.473 1.577s.866.459 1.646.459h1.867v2.143h-2.287c-1.418 0-2.475-.322-3.176-.972-.705-.65-1.058-1.722-1.058-3.207v-9h-1.98v-2.089h1.98v-5.349h2.535v5.349h3.986v2.089z"/><path d="m391.305 159.183c.633-1.179 1.5-2.097 2.61-2.748 1.102-.65 2.336-.972 3.697-.972s2.501.291 3.48.865c.986.574 1.725 1.301 2.205 2.174v-2.786h2.565v15.275h-2.565v-2.847c-.506.896-1.245 1.631-2.242 2.22-.994.582-2.153.88-3.469.88s-2.584-.337-3.679-1.003c-1.095-.665-1.961-1.607-2.595-2.816s-.949-2.579-.949-4.125.315-2.931.949-4.109zm11.287 1.125c-.465-.857-1.091-1.508-1.882-1.967-.788-.459-1.662-.681-2.607-.681-.952 0-1.818.222-2.598.666s-1.399 1.094-1.868 1.951c-.465.858-.694 1.86-.694 3.008s.229 2.189.694 3.053c.469.865 1.088 1.523 1.868 1.983.78.459 1.646.681 2.598.681.945 0 1.812-.23 2.607-.681.791-.452 1.417-1.118 1.882-1.983.469-.864.698-1.875.698-3.023s-.229-2.158-.698-3.007z"/></g></g></svg>

<svg width="600" height="240" viewBox="0 0 600 240" fill="none" xmlns="http://www.w3.org/2000/svg">
<mask id="mask0_1904_3432" style="mask-type:luminance" maskUnits="userSpaceOnUse" x="135" y="63" width="330" height="114">
<path d="M464.544 63.7507H135.461V176.251H464.544V63.7507Z" fill="white"/>
</mask>
<g mask="url(#mask0_1904_3432)">
<path d="M135.574 117.835L142.523 81.1923C142.937 79.0267 144.467 77.2436 146.549 76.5243L183.107 63.8201C184.003 63.5062 184.898 64.2791 184.722 65.2128L181.133 84.162C181.049 84.5906 180.743 84.9502 180.329 85.0957L160.041 92.1825" fill="#364153"/>
<path d="M156.675 93.3525C145.769 97.1561 137.726 106.485 135.568 117.835C135.162 119.993 135.927 122.197 137.588 123.636L166.937 149.067C167.657 149.687 168.774 149.297 168.95 148.363L172.586 129.184C172.67 128.756 172.509 128.312 172.18 128.021L155.894 113.993L160.027 92.1818" fill="#364153"/>
<path d="M228.053 97.6312L221.104 134.274C220.691 136.44 219.16 138.223 217.079 138.942L180.527 151.639C179.632 151.953 178.737 151.18 178.913 150.246L182.502 131.297C182.586 130.869 182.893 130.509 183.306 130.363L203.594 123.277" fill="#364153"/>
<path d="M203.597 123.284L207.73 101.473L191.444 87.4447C191.107 87.1537 190.954 86.7176 191.038 86.2814L194.674 67.1028C194.85 66.1691 195.975 65.7787 196.686 66.3986L226.036 91.8299C227.697 93.2688 228.462 95.4727 228.056 97.6308C225.906 108.98 217.855 118.309 206.949 122.113" fill="#364153"/>
<mask id="mask1_1904_3432" style="mask-type:luminance" maskUnits="userSpaceOnUse" x="252" y="76" width="213" height="96">
<path d="M464.796 76.0414H252.555V171.245H464.796V76.0414Z" fill="white"/>
</mask>
<g mask="url(#mask1_1904_3432)">
<path d="M355.023 82.8521C355.023 79.11 358.085 76.041 361.743 76.041C365.401 76.041 368.554 79.1021 368.554 82.8521C368.554 86.6021 365.493 89.5718 361.743 89.5718C357.993 89.5718 355.023 86.5103 355.023 82.8521Z" fill="#364153"/>
<path d="M252.555 82.8147H264.47V113.45C264.807 112.853 267.532 108.766 269.491 106.218L287.024 82.8147H300.899L281.667 108.001L303.279 137.955H289.32L274.343 116.763L264.47 128.848V137.955H252.555V82.8147Z" fill="#364153"/>
<path d="M367.524 95.4116H356.121V137.963H367.524V95.4116Z" fill="#364153"/>
<path d="M376.207 82.8147H387.607V113.113L402.251 95.4117H416.126L399.532 113.963L418.931 137.963H405.236L392.471 121.707L387.615 127.493V137.963H376.215V82.8147H376.207Z" fill="#364153"/>
<path d="M419.27 116.678C419.27 104.341 429.308 94.5529 441.991 94.5529C454.67 94.5529 464.795 104.341 464.795 116.678C464.795 129.015 454.756 138.803 441.991 138.803C429.222 138.803 419.27 129.015 419.27 116.678ZM453.14 116.678C453.14 110.043 448.37 105.106 441.991 105.106C435.605 105.106 430.838 110.043 430.838 116.678C430.838 123.313 435.605 128.249 441.991 128.249C448.37 128.249 453.14 123.397 453.14 116.678Z" fill="#364153"/>
<path d="M336.295 95.4042V98.8253C333.334 96.4223 329.637 94.9452 325.841 94.5856C319.022 93.9274 312.012 97.0193 307.482 102.078C303.9 106.073 301.918 111.315 301.918 116.68C301.918 122.045 303.9 127.287 307.482 131.282C312.012 136.341 319.022 139.433 325.841 138.774C329.645 138.414 333.341 136.938 336.295 134.534V137.948H347.446V95.4042H336.295ZM324.632 128.251C318.25 128.251 313.481 123.315 313.481 116.68C313.481 110.045 318.25 105.108 324.632 105.108C331.015 105.108 335.783 110.045 335.783 116.68C335.783 123.315 331.022 128.251 324.632 128.251Z" fill="#364153"/>
<path d="M255.654 170.64C254.728 170.242 253.993 169.683 253.45 168.964C252.914 168.252 252.616 167.426 252.555 166.5H255.172C255.248 167.265 255.6 167.885 256.244 168.367C256.886 168.849 257.728 169.094 258.769 169.094C259.733 169.094 260.498 168.88 261.057 168.452C261.616 168.023 261.891 167.487 261.891 166.836C261.891 166.186 261.593 165.673 260.996 165.344C260.399 165.023 259.481 164.701 258.233 164.38C257.1 164.081 256.175 163.783 255.463 163.477C254.751 163.171 254.131 162.711 253.626 162.114C253.113 161.51 252.861 160.714 252.861 159.734C252.861 158.954 253.09 158.242 253.557 157.592C254.024 156.941 254.682 156.428 255.539 156.046C256.397 155.663 257.369 155.472 258.463 155.472C260.154 155.472 261.516 155.9 262.557 156.75C263.598 157.607 264.156 158.778 264.225 160.263H261.692C261.639 159.467 261.317 158.824 260.728 158.342C260.146 157.86 259.358 157.615 258.371 157.615C257.46 157.615 256.733 157.814 256.197 158.196C255.662 158.586 255.386 159.099 255.386 159.727C255.386 160.232 255.547 160.645 255.876 160.967C256.197 161.296 256.611 161.548 257.1 161.747C257.59 161.946 258.279 162.161 259.152 162.405C260.246 162.704 261.141 162.995 261.83 163.286C262.519 163.576 263.108 164.005 263.598 164.579C264.088 165.153 264.348 165.911 264.363 166.836C264.363 167.671 264.134 168.428 263.667 169.094C263.2 169.76 262.55 170.288 261.7 170.671C260.85 171.053 259.886 171.245 258.784 171.245C257.613 171.245 256.565 171.046 255.631 170.648H255.654V170.64Z" fill="#364153"/>
<path d="M289.489 156.168C290.415 156.658 291.149 157.4 291.693 158.387C292.228 159.375 292.504 160.569 292.504 161.984V170.984H289.994V162.344C289.994 160.821 289.618 159.658 288.861 158.847C288.111 158.036 287.093 157.637 285.808 157.637C284.522 157.637 283.435 158.058 282.655 158.908C281.874 159.757 281.484 160.974 281.484 162.573V170.992H278.973V162.352C278.973 160.829 278.598 159.665 277.848 158.854C277.098 158.043 276.081 157.645 274.795 157.645C273.509 157.645 272.422 158.066 271.642 158.915C270.861 159.765 270.471 160.982 270.471 162.581V171H267.938V155.724H270.471V157.928C270.976 157.132 271.649 156.52 272.491 156.092C273.333 155.663 274.267 155.448 275.292 155.448C276.578 155.448 277.71 155.739 278.69 156.314C279.678 156.888 280.412 157.737 280.895 158.847C281.323 157.767 282.027 156.933 283.014 156.336C284.001 155.739 285.096 155.441 286.305 155.441C287.514 155.441 288.555 155.686 289.481 156.183V156.168H289.489Z" fill="#364153"/>
<path d="M296.652 159.183C297.287 158.004 298.152 157.086 299.262 156.435C300.364 155.785 301.596 155.463 302.958 155.463C304.321 155.463 305.461 155.754 306.44 156.328C307.427 156.902 308.162 157.629 308.644 158.502V155.716H311.208V170.991H308.644V168.144C308.139 169.04 307.397 169.775 306.402 170.364C305.407 170.946 304.252 171.244 302.935 171.244C301.619 171.244 300.349 170.907 299.254 170.241C298.16 169.576 297.295 168.634 296.66 167.425C296.024 166.216 295.711 164.846 295.711 163.3C295.711 161.754 296.024 160.369 296.66 159.191H296.652V159.183ZM307.94 160.308C307.474 159.451 306.846 158.8 306.058 158.341C305.27 157.882 304.397 157.66 303.448 157.66C302.499 157.66 301.634 157.882 300.854 158.326C300.073 158.77 299.453 159.42 298.986 160.277C298.519 161.135 298.29 162.137 298.29 163.285C298.29 164.433 298.519 165.474 298.986 166.338C299.453 167.203 300.073 167.861 300.854 168.321C301.634 168.78 302.499 169.002 303.448 169.002C304.397 169.002 305.262 168.772 306.058 168.321C306.846 167.869 307.474 167.203 307.94 166.338C308.407 165.474 308.637 164.463 308.637 163.315C308.637 162.167 308.407 161.157 307.94 160.308Z" fill="#364153"/>
<path d="M319.939 156.16C320.765 155.678 321.776 155.433 322.962 155.433V158.05H322.296C319.457 158.05 318.033 159.596 318.033 162.68V170.984H315.5V155.709H318.033V158.188C318.477 157.315 319.112 156.634 319.939 156.152V156.16Z" fill="#364153"/>
<path d="M328.988 157.815V166.807C328.988 167.55 329.149 168.078 329.462 168.384C329.776 168.69 330.328 168.843 331.108 168.843H332.975V170.986H330.687C329.271 170.986 328.215 170.664 327.511 170.014C326.807 169.364 326.455 168.292 326.455 166.807V157.815H324.473V155.718H326.455V150.369H328.988V155.718H332.975V157.815H328.988Z" fill="#364153"/>
<path d="M343.48 159.184C344.115 158.005 344.98 157.087 346.09 156.437C347.192 155.787 348.439 155.465 349.809 155.465C350.995 155.465 352.105 155.74 353.123 156.284C354.141 156.835 354.921 157.554 355.465 158.442V150.36H358.029V170.985H355.465V168.115C354.96 169.026 354.217 169.776 353.238 170.358C352.251 170.939 351.103 171.238 349.779 171.238C348.454 171.238 347.192 170.901 346.082 170.235C344.98 169.57 344.107 168.628 343.472 167.419C342.837 166.21 342.523 164.84 342.523 163.294C342.523 161.748 342.837 160.363 343.472 159.184H343.48ZM354.768 160.317C354.301 159.46 353.674 158.809 352.886 158.35C352.098 157.891 351.225 157.669 350.276 157.669C349.327 157.669 348.462 157.891 347.682 158.335C346.901 158.779 346.281 159.429 345.814 160.286C345.347 161.143 345.118 162.146 345.118 163.294C345.118 164.442 345.347 165.483 345.814 166.347C346.281 167.212 346.901 167.871 347.682 168.33C348.462 168.789 349.327 169.011 350.276 169.011C351.225 169.011 352.09 168.781 352.886 168.33C353.674 167.878 354.301 167.212 354.768 166.347C355.235 165.483 355.465 164.472 355.465 163.324C355.465 162.177 355.235 161.167 354.768 160.317Z" fill="#364153"/>
<path d="M362.324 159.183C362.959 158.004 363.824 157.086 364.934 156.435C366.036 155.785 367.268 155.463 368.63 155.463C369.992 155.463 371.132 155.754 372.112 156.328C373.099 156.902 373.834 157.629 374.316 158.502V155.716H376.879V170.991H374.316V168.144C373.811 169.04 373.069 169.775 372.074 170.364C371.079 170.946 369.923 171.244 368.607 171.244C367.291 171.244 366.02 170.907 364.926 170.241C363.832 169.576 362.967 168.634 362.332 167.425C361.696 166.216 361.383 164.846 361.383 163.3C361.383 161.754 361.696 160.369 362.332 159.191L362.324 159.183ZM373.612 160.308C373.145 159.451 372.518 158.8 371.729 158.341C370.942 157.882 370.069 157.66 369.12 157.66C368.171 157.66 367.306 157.882 366.526 158.326C365.745 158.77 365.125 159.42 364.658 160.277C364.191 161.135 363.962 162.137 363.962 163.285C363.962 164.433 364.191 165.474 364.658 166.338C365.125 167.203 365.745 167.861 366.526 168.321C367.306 168.78 368.171 169.002 369.12 169.002C370.069 169.002 370.934 168.772 371.729 168.321C372.518 167.869 373.145 167.203 373.612 166.338C374.079 165.474 374.309 164.463 374.309 163.315C374.309 162.167 374.079 161.157 373.612 160.308Z" fill="#364153"/>
<path d="M384.257 157.807V166.807C384.257 167.55 384.415 168.078 384.73 168.384C385.045 168.69 385.596 168.843 386.376 168.843H388.243V170.986H385.956C384.538 170.986 383.481 170.664 382.78 170.014C382.075 169.364 381.722 168.292 381.722 166.807V157.807H379.742V155.718H381.722V150.369H384.257V155.718H388.243V157.807H384.257Z" fill="#364153"/>
<path d="M391.305 159.183C391.938 158.004 392.805 157.086 393.915 156.435C395.017 155.785 396.251 155.463 397.612 155.463C398.973 155.463 400.113 155.754 401.092 156.328C402.078 156.902 402.817 157.629 403.297 158.502V155.716H405.862V170.991H403.297V168.144C402.791 169.04 402.052 169.775 401.055 170.364C400.061 170.946 398.902 171.244 397.586 171.244C396.27 171.244 395.002 170.907 393.907 170.241C392.812 169.576 391.946 168.634 391.312 167.425C390.678 166.216 390.363 164.846 390.363 163.3C390.363 161.754 390.678 160.369 391.312 159.191L391.305 159.183ZM402.592 160.308C402.127 159.451 401.501 158.8 400.71 158.341C399.922 157.882 399.048 157.66 398.103 157.66C397.151 157.66 396.285 157.882 395.505 158.326C394.725 158.77 394.106 159.42 393.637 160.277C393.172 161.135 392.943 162.137 392.943 163.285C392.943 164.433 393.172 165.474 393.637 166.338C394.106 167.203 394.725 167.861 395.505 168.321C396.285 168.78 397.151 169.002 398.103 169.002C399.048 169.002 399.915 168.772 400.71 168.321C401.501 167.869 402.127 167.203 402.592 166.338C403.061 165.474 403.29 164.463 403.29 163.315C403.29 162.167 403.061 161.157 402.592 160.308Z" fill="#364153"/>
</g>
</g>
</svg>
